packages/appstore/src/assets/svgs/wallet/spei-dark.svg

<svg width="128" height="80" viewBox="0 0 128 80" fill="none" xmlns="http://www.w3.org/2000/svg">
<path d="M16.7233 45.4982L6 46.17C6.31515 49.8523 7.66697 52.8876 10.0555 55.2761C12.4439 57.6646 16.7399 58.8589 22.9433 58.8589C26.4763 58.8589 29.4039 58.353 31.726 57.3412C34.0482 56.3128 35.8561 54.8117 37.1499 52.8379C38.4437 50.8641 39.0905 48.7078 39.0905 46.369C39.0905 44.3786 38.6012 42.579 37.6226 40.9701C36.6606 39.3612 35.1097 38.0176 32.97 36.9395C30.8469 35.8448 27.3222 34.7666 22.396 33.7051C20.4056 33.2904 19.145 32.8426 18.6142 32.3615C18.0668 31.8971 17.7932 31.3746 17.7932 30.7941C17.7932 29.9979 18.1249 29.3262 18.7884 28.7788C19.4518 28.2149 20.4388 27.9329 21.7491 27.9329C23.3414 27.9329 24.5854 28.3061 25.4811 29.0525C26.3934 29.7989 26.9905 30.9931 27.2725 32.6352L37.8963 32.0132C37.4319 28.2315 35.9722 25.4781 33.5174 23.753C31.0791 22.0114 27.5296 21.1406 22.8687 21.1406C19.0703 21.1406 16.0764 21.6216 13.887 22.5837C11.7141 23.5291 10.0803 24.8395 8.98561 26.5147C7.90747 28.1734 7.36841 29.9399 7.36841 31.8142C7.36841 34.6671 8.42996 37.0141 10.5531 38.8553C12.6596 40.6964 16.1843 42.1726 21.1271 43.2839C24.1459 43.9474 26.07 44.6523 26.8993 45.3987C27.7286 46.1451 28.1433 46.9911 28.1433 47.9365C28.1433 48.9317 27.7037 49.8108 26.8246 50.5738C25.9621 51.3202 24.7264 51.6934 23.1175 51.6934C20.9612 51.6934 19.3026 50.9553 18.1415 49.4791C17.4283 48.5668 16.9555 47.2398 16.7233 45.4982Z" fill="#303992"/>
<path d="M16.7233 45.4982L6 46.17C6.31515 49.8523 7.66697 52.8876 10.0555 55.2761C12.4439 57.6646 16.7399 58.8589 22.9433 58.8589C26.4763 58.8589 29.4039 58.353 31.726 57.3412C34.0482 56.3128 35.8561 54.8117 37.1499 52.8379C38.4437 50.8641 39.0905 48.7078 39.0905 46.369C39.0905 44.3786 38.6012 42.579 37.6226 40.9701C36.6606 39.3612 35.1097 38.0176 32.97 36.9395C30.8469 35.8448 27.3222 34.7666 22.396 33.7051C20.4056 33.2904 19.145 32.8426 18.6142 32.3615C18.0668 31.8971 17.7932 31.3746 17.7932 30.7941C17.7932 29.9979 18.1249 29.3262 18.7884 28.7788C19.4518 28.2149 20.4388 27.9329 21.7491 27.9329C23.3414 27.9329 24.5854 28.3061 25.4811 29.0525C26.3934 29.7989 26.9905 30.9931 27.2725 32.6352L37.8963 32.0132C37.4319 28.2315 35.9722 25.4781 33.5174 23.753C31.0791 22.0114 27.5296 21.1406 22.8687 21.1406C19.0703 21.1406 16.0764 21.6216 13.887 22.5837C11.7141 23.5291 10.0803 24.8395 8.98561 26.5147C7.90747 28.1734 7.36841 29.9399 7.36841 31.8142C7.36841 34.6671 8.42996 37.0141 10.5531 38.8553C12.6596 40.6964 16.1843 42.1726 21.1271 43.2839C24.1459 43.9474 26.07 44.6523 26.8993 45.3987C27.7286 46.1451 28.1433 46.9911 28.1433 47.9365C28.1433 48.9317 27.7037 49.8108 26.8246 50.5738C25.9621 51.3202 24.7264 51.6934 23.1175 51.6934C20.9612 51.6934 19.3026 50.9553 18.1415 49.4791C17.4283 48.5668 16.9555 47.2398 16.7233 45.4982Z" fill="white" fill-opacity="0.04"/>
<path fill-rule="evenodd" clip-rule="evenodd" d="M60.6759 21.7626H41.9411V58.2369H53.2616V44.7021H59.4319C63.9766 44.7021 67.352 43.6654 69.5581 41.5921C71.7807 39.5187 72.892 36.6409 72.892 32.9587C72.892 29.3759 71.8719 26.6142 69.8317 24.6736C67.8081 22.733 64.7562 21.7626 60.6759 21.7626ZM56.0233 37.3127H53.2616V29.1769H56.4711C58.5776 29.1769 60.0124 29.575 60.7754 30.3711C61.5384 31.1673 61.9199 32.1376 61.9199 33.2821C61.9199 34.4598 61.4803 35.4301 60.6012 36.1931C59.7221 36.9395 58.1961 37.3127 56.0233 37.3127Z" fill="#303992"/>
<path fill-rule="evenodd" clip-rule="evenodd" d="M60.6759 21.7626H41.9411V58.2369H53.2616V44.7021H59.4319C63.9766 44.7021 67.352 43.6654 69.5581 41.5921C71.7807 39.5187 72.892 36.6409 72.892 32.9587C72.892 29.3759 71.8719 26.6142 69.8317 24.6736C67.8081 22.733 64.7562 21.7626 60.6759 21.7626ZM56.0233 37.3127H53.2616V29.1769H56.4711C58.5776 29.1769 60.0124 29.575 60.7754 30.3711C61.5384 31.1673 61.9199 32.1376 61.9199 33.2821C61.9199 34.4598 61.4803 35.4301 60.6012 36.1931C59.7221 36.9395 58.1961 37.3127 56.0233 37.3127Z" fill="white" fill-opacity="0.04"/>
<path d="M122 21.7626H110.704V32.7596H115.481V24.798L122 32.3194V21.7626Z" fill="#303992"/>
<path d="M122 21.7626H110.704V32.7596H115.481V24.798L122 32.3194V21.7626Z" fill="white" fill-opacity="0.04"/>
<path d="M122 41.1615L115.481 48.6829V40.7213H110.704V58.2369H122V41.1615Z" fill="#303992"/>
<path d="M122 41.1615L115.481 48.6829V40.7213H110.704V58.2369H122V41.1615Z" fill="white" fill-opacity="0.04"/>
<path d="M75.7007 21.7627H105.905V30.5991H86.9963V35.3472H104.537V42.4367H86.9963V50.676H106.452V58.2369H75.7007V21.7627Z" fill="#F6861E"/>
</svg>

<svg width="128" height="80" fill="none" xmlns="http://www.w3.org/2000/svg"><path d="M16.723 45.498 6 46.17c.315 3.682 1.667 6.718 4.056 9.106 2.388 2.389 6.684 3.583 12.887 3.583 3.533 0 6.46-.506 8.783-1.518 2.322-1.028 4.13-2.53 5.424-4.503 1.294-1.974 1.94-4.13 1.94-6.469 0-1.99-.489-3.79-1.467-5.399-.962-1.609-2.513-2.952-4.653-4.03-2.123-1.095-5.648-2.173-10.574-3.235-1.99-.415-3.251-.862-3.782-1.343-.547-.465-.82-.987-.82-1.568 0-.796.33-1.468.994-2.015.664-.564 1.65-.846 2.961-.846 1.592 0 2.836.373 3.732 1.12.912.746 1.51 1.94 1.791 3.582l10.624-.622c-.464-3.781-1.924-6.535-4.379-8.26-2.438-1.742-5.987-2.612-10.648-2.612-3.799 0-6.793.48-8.982 1.443-2.173.945-3.807 2.256-4.901 3.93-1.079 1.66-1.618 3.426-1.618 5.3 0 2.853 1.062 5.2 3.185 7.041 2.107 1.841 5.631 3.318 10.574 4.429 3.019.663 4.943 1.368 5.772 2.115.83.746 1.244 1.592 1.244 2.538 0 .995-.44 1.874-1.318 2.637-.863.746-2.099 1.12-3.707 1.12-2.157 0-3.815-.739-4.976-2.215-.714-.912-1.186-2.24-1.419-3.98z" fill="#303992"/><path d="M16.723 45.498 6 46.17c.315 3.682 1.667 6.718 4.056 9.106 2.388 2.389 6.684 3.583 12.887 3.583 3.533 0 6.46-.506 8.783-1.518 2.322-1.028 4.13-2.53 5.424-4.503 1.294-1.974 1.94-4.13 1.94-6.469 0-1.99-.489-3.79-1.467-5.399-.962-1.609-2.513-2.952-4.653-4.03-2.123-1.095-5.648-2.173-10.574-3.235-1.99-.415-3.251-.862-3.782-1.343-.547-.465-.82-.987-.82-1.568 0-.796.33-1.468.994-2.015.664-.564 1.65-.846 2.961-.846 1.592 0 2.836.373 3.732 1.12.912.746 1.51 1.94 1.791 3.582l10.624-.622c-.464-3.781-1.924-6.535-4.379-8.26-2.438-1.742-5.987-2.612-10.648-2.612-3.799 0-6.793.48-8.982 1.443-2.173.945-3.807 2.256-4.901 3.93-1.079 1.66-1.618 3.426-1.618 5.3 0 2.853 1.062 5.2 3.185 7.041 2.107 1.841 5.631 3.318 10.574 4.429 3.019.663 4.943 1.368 5.772 2.115.83.746 1.244 1.592 1.244 2.538 0 .995-.44 1.874-1.318 2.637-.863.746-2.099 1.12-3.707 1.12-2.157 0-3.815-.739-4.976-2.215-.714-.912-1.186-2.24-1.419-3.98z" fill="#fff" fill-opacity=".04"/><path fill-rule="evenodd" clip-rule="evenodd" d="M60.676 21.763H41.94v36.474h11.32V44.702h6.17c4.546 0 7.921-1.037 10.127-3.11 2.223-2.073 3.334-4.951 3.334-8.633 0-3.583-1.02-6.345-3.06-8.285-2.024-1.941-5.076-2.911-9.156-2.911zm-4.653 15.55h-2.761v-8.136h3.21c2.106 0 3.54.398 4.303 1.194.763.796 1.145 1.767 1.145 2.911 0 1.178-.44 2.148-1.319 2.911-.879.747-2.405 1.12-4.578 1.12z" fill="#303992"/><path fill-rule="evenodd" clip-rule="evenodd" d="M60.676 21.763H41.94v36.474h11.32V44.702h6.17c4.546 0 7.921-1.037 10.127-3.11 2.223-2.073 3.334-4.951 3.334-8.633 0-3.583-1.02-6.345-3.06-8.285-2.024-1.941-5.076-2.911-9.156-2.911zm-4.653 15.55h-2.761v-8.136h3.21c2.106 0 3.54.398 4.303 1.194.763.796 1.145 1.767 1.145 2.911 0 1.178-.44 2.148-1.319 2.911-.879.747-2.405 1.12-4.578 1.12z" fill="#fff" fill-opacity=".04"/><path d="M122 21.763h-11.296V32.76h4.777v-7.962L122 32.319V21.763z" fill="#303992"/><path d="M122 21.763h-11.296V32.76h4.777v-7.962L122 32.319V21.763z" fill="#fff" fill-opacity=".04"/><path d="m122 41.161-6.519 7.522V40.72h-4.777v17.516H122V41.16z" fill="#303992"/><path d="m122 41.161-6.519 7.522V40.72h-4.777v17.516H122V41.16z" fill="#fff" fill-opacity=".04"/><path d="M75.7 21.763h30.205v8.836H86.996v4.748h17.541v7.09h-17.54v8.239h19.455v7.56H75.701V21.764z" fill="#F6861E"/></svg>
